X: 23
T: Old Age is Painful
N: Derived from pawnee23.krn
O: Oklahoma, U.S.A.
N: from Pawnee Music by Frances Densmore, 1926
Z: transcribed to **kern format by David Huron, August 2000
C: Skidi and Chaui Bands, 1919
L: 1/8
M: 2/4
Q: 1/4=88
K: A clef=bass
%%linebreak <none>
A/ [I:setbarnb 1]| 
A2G2 | 
F2(F3/ E/)[M:3/4] | 
F2F3G/[M:2/4] | 
F4- | 
F3G[M:3/4] | 
F2F2F3/ D/ | 
D2(D< C) C3/ C/ | 
(C< A,) (A,< G,) F,3/ F,/ | 
F,2F,2F,3/ F,/[M:2/4] | 
F,2A,/ F,3/[M:3/4] | 
F,2F,< F,- F,3/ B,/[M:2/4] | 
A,2A,/ G,3/ | 
G,< F, F,3/ F,/ | 
F,< E, F,3/ F,/ | 
F,7/ |]  



